!!!COM:	Ockeghem, Johannes
!!!CDT:	~1425-1497/02/06
!!!OTL:	Depart&eacute;s vous
!!!AGN: Chanson
!!!SCT:	Ock3025
!!!voices:	3
**kern	**kern	**kern
*staff3	*staff2	*staff1
*I"Contra	*I"Tenor	*I"Discantus
*I'C	*I'T	*I'D
*clefF4	*clefGv2	*clefG2
*k[]	*k[]	*k[]
*M2/1	*M2/1	*M2/1
*met(C|)	*met(C|)	*met(C|)
!!incipit: 6
=1-	=1-	=1-
!!LO:TX:Z=8:t=Form&colon; rondeau?
0r	0r	1.d
.	.	2e/
=2	=2	=2
0r	0r	1f
.	.	1g
=3	=3	=3
1.D	0r	1a
.	.	1a
2E\	.	.
=4	=4	=4
1F	0r	1a
1G	.	1b-i
=5	=5	=5
0A	1.D	2a/
.	.	1a
.	2E/	2g/
=6	=6	=6
2D\	1F	2f/
2C/	.	2e/
1BB	1G	1d
=7	=7	=7
!!linebreak:original
1AA	0A	1c
1D	.	1f
=8	=8	=8
1E	0G	2e/
.	.	1g
[1C	.	.
.	.	2f/
=9	=9	=9
1C]	1A	2e/
.	.	2d/
1D	1F	[1d
=10	=10	=10
0AA	0E	1d]
.	.	1c#i
=11	=11	=11
1r	0D	0d
1A	.	.
=12	=12	=12
2.B-\	0d	1r
4A\	.	.
2F\	.	1f
2G\	.	.
=13	=13	=13
0A	0c	1e
.	.	1e
=14	=14	=14
!!linebreak:original
0D	1.f	0d
.	2e\	.
=15	=15	=15
0F	2d\	0a
.	2c\	.
.	1d	.
=16	=16	=16
1E	1e	1g
1D	1f	1a
=17	=17	=17
1C	1e	1cc
[1G	[1d	[1b
=18	=18	=18
1G]	1d]	2b\]
.	.	2a/
1A	1c	[1a
=19	=19	=19
0E	0B	1a]
.	.	1g#i
=20	=20	=20
0AA	[0A	0a
=21	=21	=21
!!linebreak:original
0D	0A]	0r
=22	=22	=22
1B-	0r	1d
1A	.	2e/
.	.	[2f/
=23	=23	=23
2d\	0r	2f/]
2B\	.	2g/
1c#i	.	1e
=24	=24	=24
2.d\	1D	2d/
.	.	2f/
4c\	.	.
2B\	2E/	2g/
[2A\	[2F/	2a/
=25	=25	=25
2A\]	2F/]	1d
2B\	2G/	.
2.G\	1E	2c#i/
.	.	2B/
4F\	.	.
=26	=26	=26
1A	0D	1d
1r	.	1f
=27	=27	=27
1D	1d	1f
2E\	1c	2g/
[2F\	.	[2a/
=28	=28	=28
!!pagebreak:original
2F\]	2d\	2a/]
2G\	2B\	2d/
1E	1c	2e/
.	.	2g/
=29	=29	=29
1D	1d	2f/
.	.	2.a/
2r	1A	.
.	.	4g/
2D\	.	2f/
=30	=30	=30
2E\	2G/	1e
1AA	1A	.
.	.	2c/
2A\	2D/	2f/
=31	=31	=31
2G\	2E/	2g/
2B\	2G/	1e
2.A\	1F	.
.	.	2d/
4G\	.	.
=32	=32	=32
0B	[0E;	0e;
=33	=33	=33
2G\	0E]	0r
2A\	.	.
1B	.	.
=34	=34	=34
1.c	0e	1.g
2c\	.	2a/
=35	=35	=35
!!linebreak:original
0G	0d	1b
.	.	1b
=36	=36	=36
0d	0f	1a
.	.	[1dd
=37	=37	=37
0A	0e	2dd\]
.	.	2cc#i\
.	.	2cc#i\
.	.	2b\
=38	=38	=38
1B-	1d	1dd
1A	1c	1ee
=39	=39	=39
1D	2d\	1dd
.	2f\	.
1A	1e	1cc
=40	=40	=40
1D	0d	1.dd
2.B-i\	.	.
.	.	2cc\
4A\	.	.
=41	=41	=41
2G\	1r	2b\
2F\	.	2a/
1G	1d	1b
=42	=42	=42
!!linebreak:original
0A	1A	2cc\
.	.	2a/
.	1c	[1a
=43	=43	=43
0E	0B	2a/]
.	.	2g#i/
.	.	2g#i/
.	.	2f#i/
=44	=44	=44
1F	0A	1a
1D	.	1r
=45	=45	=45
0A	0r	3%2.ccV
.	.	3b\
.	.	3%2aZ
=46	=46	=46
0r	3%2.cV	3%2gV
.	.	3%2e
.	3B\	.
.	3%2AZ	3%2fZ
=47	=47	=47
0r	3%2GV	3%2.gV
.	3%2E	.
.	.	3f/
.	3%2FZ	3%2dZ
=48	=48	=48
3%4B-V	3%2.GV	3%2eV
.	.	3%4dZ
.	3F/	.
3A\	3%2DZ	.
3d\Z	.	.
=49	=49	=49
!!linebreak:original
3c\V	3%2EV	3%2gV
3B\	.	.
3%4dZ	3%4DZ	3f/
.	.	3g/
.	.	3%2aZ
=50	=50	=50
3%2dV	3%2GV	3%2b-V
3%4DZ	3F/	3%2a
.	3G/	.
.	3%2AZ	3%2fZ
=51	=51	=51
3%2rV	3%2BV	3%2.gV
3%2E	3%2G	.
.	.	3f/
3%2CZ	3%2AZ	3e/
.	.	3d/Z
=52	=52	=52
3%2DV	3%2FV	3%4dV
3%4AAZ	3%4EZ	.
.	.	3%2c#iZ
=53	=53	=53
0Al	0Dl	0dl
==	==	==
*-	*-	*-
!!!RDF**kern: l=long note in original notation
!!!RDF**kern: i=editorial accidental
!!!ENC:	Chris Gage 06-26-2012
!!!END:	2012/06/26/
!!!EED:	Jesse Rodin
!!!EEV:	2012/03/17/
!!!ONB:	Translated from MusicXML and edited on 2012/03/17/ by Craig Sapp
!!muse2ps: T^@{OTL}^C^Du Fay?/Ockeghem?^i2I100v85,90,85,150Q16
